X:1
T:Rondo Alla Chinese
T:Rondo Alla Chinese
T:James Kwan
C:James Kwan
%%score { ( 1 3 ) | 2 }
L:1/8
M:2/4
K:C
V:1 treble nm="Piano" snm="Pno."
V:3 treble 
V:2 bass 
V:1
!p! (c/A/G/A/ | .c) z (d/c/A/c/ | .e) z (g/e/d/e/ | a/a/g/a/ a/a/g/a/ | c'2) .a.c' | %5
({ga)} .c'.[ea] .[eg].[ea] |({ga)} .c'.[ea] .[eg].[ea] |({ga)} .c'.[ea] .[eg].[ce] | e2 z2 :: %9
!f! z2 .[ce].[eg] | .[eg].[eg] (a/g/e/d/ | [Ad])G!p! .[ce].[eg] | .[eg].[eg] (a/g/e/d/ | %13
 [Ad]2)!f! .[Ac].[Ad] | .[ce].[ce] (e/e/d/c/ | [Gc])E!p! .[Ac].[Ad] | .[ce].[ce] (e/e/d/c/ | %17
 [Gc])E (c/A/G/A/ | .c) z (d/c/A/c/ | .e) z (g/e/d/e/ | a/a/g/a/ a/a/g/a/ |!f! c'2)!p! .a.b | %22
 .c'.a .a.g | .a.e .g.d | c2 (TcG/A/ | G2) z2 ::[K:A]!ff! z2 [Aa][Bb] | [cc']2 [Aa][Bb] | %28
 [cc'][Bb] [Aa][Ff] | [Ee][Ff] [Aa][Bb] | [Ff][Ee] [Aa][Bb] | [cc']2 [Aa][Bb] | %32
 [cc'][Bb] [Aa][Ff] | [Ee][Bb] [Ff][Ee] | [Aa]2 z2 :: z2 (c'/e'/c'/b/ | a/b/a/f/ f/a/f/f/ | %37
 e/f/a/e/ c/e/f/c/ | f/e/f/a/ a/a/a/b/ | c'/b/c'/b/ c'/e'/c'/b/ | a/b/a/f/ f/a/f/f/ | %41
 e/f/a/e/ c/e/f/c/ | c/e/f/c/ B/c/c/B/ | c2) z2 :: z2 (f/e/c/B/ | A/B/c/c/ e/f/f/a/ | %46
 a/f/f/e/ e/c/c/B/ | A/B/c/c/ e/f/f/a/ | bc' f/e/c/B/ | A/B/c/c/ e/f/f/a/ | a/f/f/e/ e/c/c/B/ | %51
 c/e/A/c/ B/e/F/B/ | A2) (c'/e'/c'/b/ | a/b/a/f/ f/a/f/f/ | e/f/a/e/ c/e/f/c/ | f/e/f/a/ a/a/a/b/ | %56
 c'/b/c'/b/ c'/e'/c'/a/ | e'/c'/e'/c'/ e'/c'/e'/c'/ | e'/c'/b/a/ f/a/b/f/ | a/b/c'/f/ e/f/a/e/ | %60
 f2) z2 ::!ff! z2 [Aa][Bb] | [cc']2 [Aa][Bb] | [cc'][Bb] [Aa][Ff] | [Ee][Ff] [Aa][Bb] | %65
 [Ff][Ee] [Aa][Bb] | [cc']2 [Aa][Bb] | [cc'][Bb] [Aa][Ff] | [Ee][Bb] [Ff][Dd] | [Aa]2 z2 :: %70
[K:C] z2!p! (c/A/G/A/ | .c) z (d/c/A/c/ | .e) z (g/e/d/e/ | a/a/g/a/ a/a/g/a/ | c'2) .a.c' | %75
({ga)} .c'.[ea] .[eg].[ea] |({ga)} .c'.[ea] .[eg].[ea] |({ga)} .c'.[ea] .[eg].[ce] | e2 z2 |: %79
!f! z2 .[ce].[eg] | .[eg].[eg] (a/g/e/d/ | [Ad])G!p! .[ce].[eg] | .[eg].[eg] (a/g/e/d/ | %83
 [Ad]2)!f! .[Ac].[Ad] | .[ce].[ce] (e/e/d/c/ | [Gc])E!p! .[Ac].[Ad] | .[ce].[ce] (e/e/d/c/ | %87
 [Gc])E (c/A/G/A/ | .c) z (d/c/A/c/ | .e) z (g/e/d/e/ | a/a/g/a/ a/a/g/a/ |!f! c'2)!p! .a.b | %92
 .c'.a .a.g | .a.e .g.d | c2 (TcG/A/ | G2) z2 ::[K:A]!ff! z2 (A/a/B/b/ | c/c'/) z (A/a/B/b/ | %98
 c/c'/B/b/ A/a/F/f/ | E/e/F/f/ A/a/B/b/ | F/f/E/e/) (A/a/B/b/ | c/c'/) z (A/a/B/b/ | %102
 c/c'/B/b/ A/a/F/f/ | F/f/B/b/ G/g/E/e/ | [Aa]2) z2 :| [Aa]2 c2 |!f! !arpeggio!c'4 | %107
 !arpeggio!c'4 | (e'/c'/)b/c'/ (e'/c'/)b/c'/ | [fac']4 | %110
{/e'} .[eac']{/e'}.[eac']{/e'}.[eac']{/e'}.[eac'] | (b3 e') | !arpeggio!c'4 | !arpeggio!c'4 | %114
 (e'/c'/)b/c'/ (e'/c'/)b/c'/ | [fac']4 |{/e'} [eac']4 | %117
{/c'} .[efb]{/c'}.[eab]{/c'}.[efb]{/c'}.[eab] | a2!p!{/ea} c'>c' |{/ea} c'4 |{/ea} c'4 | %121
 e'/c'/b/c'/ e'/c'/b/c'/ | c'4 |{/e'} c'{/e'}c'{/e'}c'{/e'}c' | (b3 e') |!f! !arpeggio!c'4 | %126
 !arpeggio!c'4 |!<(! (e'/c'/)b/c'/ (e'/c'/)b/c'/ | [fac']4 |{/e'} [eac']4 | %130
{/c'} .[efb]{/c'}.[eab]{/c'}.[efb]{/c'}.[eab]!<)! |!ff! ([Acea]3 [cc']) | ([Aa]3 [ee']) | %133
 ([Aa]3 [cc']) | .[Aa].[cc'].[Aa].[ee'] | .[Aa]2 !>![Acea]2 | !>![Acea]2 z2 |] %137
V:2
 z2 | A,[CE] [CE][CE] | A,[CE] [CE][CE] | A,[CE] A,[CE] | A,[CE] [CE][CE] | E,[A,E] [A,E][A,E] | %6
 E,[A,E] [A,E][A,E] | E,[A,E] A,,A, | E,2 z2 :: z4 | C,C E,E | G,2 z2 | C,C E,E | G,2 z2 | %14
 A,,A, C,C | E,2 z2 | A,,A, C,C | E,2 z2 | z2 A,[CE] | [CE][CE] A,[CE] | [CE][CE] A,[CE] | %21
 E,[A,E] [A,E][A,E] | E,[A,E] D,[E,C] | C,[E,A,] D,[E,C] | [E,A,][E,A,] [E,G,][E,G,] | %25
 [A,,A,]2 z2 ::[K:A] z4 |{A,,C,E,} A,A, A,A, |{A,,C,E,} A,A, A,A, | %29
{C,,F,,A,,} C,C,{E,,F,,A,,} E,E, |{E,,F,,B,,} E,E, E,E, |{A,,C,E,} A,A, A,A, |{A,,C,E,} A,A, A,A, | %33
{C,,F,,A,,} C,C,{E,,F,,B,,} E,E, | A,,2 z2 :: z4 | F,[A,C] [A,C][A,C] | F,[B,C] [B,C][B,C] | %38
 F,[A,C] [A,C][A,C] | E,[G,C] [G,C][G,C] | F,[A,C] [A,C][A,C] | F,[CE] [CE][CE] | F,[CF] [CF][CF] | %43
 [CE]2 z2 :: z4 | A,[CE] [CE][CE] | B,[CE] F,[CE] | A,[CE] [CE][CE] | z4 | A,[CE] [CE][CE] | %50
 B,[CE] F,[CE] | .A,.F, .C,.E, | .A,,.A, z2 | F,[A,C] [A,C][A,C] | F,[B,C] [B,C][B,C] | %55
 F,[A,C] [A,C][A,C] | C,[F,C] [F,C][E,C] | B,,[F,B,] [F,B,][F,B,] | B,,[E,B,] [E,B,][E,B,] | %59
 C,[F,A,] C,[F,B,] | [F,A,]2 z2 :: z4 |{A,,C,E,} A,A, A,A, |{A,,C,E,} A,A, A,A, | %64
{C,,F,,A,,} C,C,{E,,F,,A,,} E,E, |{E,,F,,B,,} E,E, E,E, |{A,,C,E,} A,A, A,A, |{A,,C,E,} A,A, A,A, | %68
{C,,F,,A,,} C,C,{E,,F,,B,,} E,E, | A,,2 z2 ::[K:C] z2 z2 | A,[CE] [CE][CE] | A,[CE] [CE][CE] | %73
 A,[CE] A,[CE] | A,[CE] [CE][CE] | E,[A,E] [A,E][A,E] | E,[A,E] [A,E][A,E] | E,[A,E] A,,A, | %78
 E,2 z2 |: z4 | C,C E,E | G,2 z2 | C,C E,E | G,2 z2 | A,,A, C,C | E,2 z2 | A,,A, C,C | E,2 z2 | %88
 z2 A,[CE] | [CE][CE] A,[CE] | [CE][CE] A,[CE] | E,[A,E] [A,E][A,E] | E,[A,E] D,[E,C] | %93
 C,[E,A,] D,[E,C] | [E,A,][E,A,] [E,G,][E,G,] | [A,,A,]2 z2 ::[K:A] z4 |{A,,C,E,} A,A, A,A, | %98
{A,,C,E,} A,A, A,A, |{C,,F,,A,,} C,C,{E,,F,,A,,} E,E, |{E,,F,,B,,} E,E, E,E, |{A,,C,E,} A,A, A,A, | %102
{A,,C,E,} A,A, A,A, |{C,,F,,A,,} C,C,{E,,F,,B,,} E,E, | A,,2 z2 :|{A,,C,E,} A,A,A,A, | %106
{A,,C,E,} A,A,A,A, |{A,,C,E,} A,A,A,A, |{A,,C,E,} A,A,A,A, |{D,,F,,A,,} D,D,D,D, | %110
{A,,C,E,} A,A,A,A, |{E,,G,,B,,} E,E,E,E, |{A,,C,E,} A,A,A,A, |{A,,C,E,} A,A,A,A, | %114
{A,,C,E,} A,A,A,A, |{C,,F,,A,,} C,C,C,C, |{A,,C,E,} A,A,A,A, |{E,,F,,B,,} E,E,E,E, | %118
 (A,/E/C/E/ A,/E/C/E/ | A,/E/C/E/ A,/E/C/E/ | A,/E/C/E/ A,/E/C/E/) | (A,/E/C/E/ A,/E/C/E/ | %122
 A,/F/C/F/ A,/F/C/F/ | A,/E/C/E/ A,/E/C/E/ | E,/E/B,/E/ E,/E/B,/E/) |{A,,C,E,} A,A,A,A, | %126
{A,,C,E,} A,A,A,A, |{A,,C,E,} A,A,A,A, |{C,,F,,A,,} C,C,C,C, |{A,,C,E,} A,A,A,A, | %130
{E,,F,,B,,} E,E,E,E, |{A,,C,E,} A,A,A,A, |{A,,C,E,} A,A,A,A, |{A,,C,E,} A,A,A,A, | %134
{A,,C,E,} A,A,{A,,C,E,} A,A, | .A,,2 !>![A,,C,E,A,]2 | !>![A,,C,E,A,]2 z2 |] %137
V:3
 x2 | x4 | x4 | x4 | x4 | x4 | x4 | x4 | x4 :: x4 | x4 | x4 | x4 | x4 | x4 | x4 | x4 | x4 | x4 | %19
 x4 | x4 | x4 | x4 | x4 | x4 | x4 ::[K:A] x4 | x4 | x4 | x4 | x4 | x4 | x4 | x4 | x4 :: x4 | x4 | %37
 x4 | x4 | x4 | x4 | x4 | x4 | x4 :: x4 | x4 | x4 | x4 | x4 | x4 | x4 | x4 | x4 | x4 | x4 | x4 | %56
 x4 | x4 | x4 | x4 | x4 :: x4 | x4 | x4 | x4 | x4 | x4 | x4 | x4 | x4 ::[K:C] x4 | x4 | x4 | x4 | %74
 x4 | x4 | x4 | x4 | x4 |: x4 | x4 | x4 | x4 | x4 | x4 | x4 | x4 | x4 | x4 | x4 | x4 | x4 | x4 | %93
 x4 | x4 | x4 ::[K:A] x4 | x4 | x4 | x4 | x4 | x4 | x4 | x4 | x4 :| x2 c'>c' | [cea]2 z2 | %107
 [cea]2 z2 | x4 | x4 | x4 | [ef]4 | [cea]2 z2 | [cea]2 z2 | x4 | x4 | x4 | x4 | x4 | x4 | x4 | x4 | %122
 x4 | x4 | [ea]4 | [cea]2 z2 | [cea]2 z2 | x4 | x4 | x4 | x4 | x4 | x4 | x4 | x4 | x4 | x4 |] %137

